cc-by-sa/knowledge/modules/using_type/lessons/typesetting_on_a_curved_path/images/curved_1.svg

<svg xmlns="http://www.w3.org/2000/svg" width="1920" height="1080" fill="none"><mask id="a" width="1820" height="980" x="50" y="50" maskUnits="userSpaceOnUse" style="mask-type:alpha"><path fill="red" d="M50 50h1820v980H50z"/></mask><g mask="url(#a)"><mask id="b" width="1820" height="980" x="50" y="50" maskUnits="userSpaceOnUse" style="mask-type:alpha"><path fill="red" d="M50 50h1820v980H50z"/></mask><g mask="url(#b)"><path fill="#D2E3FC" d="M570.993-162h-394.94v1589h394.94V-162Z"/><path fill="#1D1D1B" d="M415.549 885.266c188.486-23.269 322.468-195.318 299.258-384.283-23.209-188.965-194.823-323.288-383.308-300.019C143.013 224.233 9.03 396.283 32.24 585.247 55.45 774.212 227.063 908.535 415.55 885.266Z"/><path fill="#F3F7FE" d="M373.523 221.176c177.392 0 321.2 144.173 321.2 322.016 0 177.843-143.808 322.017-321.2 322.017s-321.2-144.219-321.2-322.062c0-177.843 143.808-322.017 321.2-322.017m0-45.437C171.43 175.738 7 340.54 7 543.147c0 202.606 164.43 367.454 366.523 367.454 202.092 0 366.522-164.848 366.522-367.454 0-202.607-164.43-367.454-366.522-367.454Z"/><path fill="#fff" d="m102.876 492.482 4.461-21.302 4.289.899-3.228 15.475 9.517 1.97 2.848-13.502 4.289.899-2.848 13.502 12.648 2.607-1.203 5.795-30.773-6.343ZM110.109 461.488l7.027-20.843 4.171 1.4-5.166 15.257 8.153 2.741 4.506-13.31 4.171 1.401-4.506 13.31 9.095 3.038 5.226-15.444 4.17 1.4-7.117 21.063-29.73-10.013ZM121.16 430.996l5.134-10.604c1.611-3.304 3.454-5.581 5.59-6.896 2.106-1.282 4.478-1.32 7.055-.05 1.54.755 2.615 1.737 3.256 2.976.609 1.208.814 2.516.675 3.86l.064.062c1.076-1.235 2.439-2.006 3.964-2.374 1.557-.337 3.215-.083 5.037.824 2.577 1.27 4.101 3.182 4.605 5.827.504 2.646-.081 5.59-1.63 8.831l-5.408 11.201-28.217-13.659-.125.002Zm16.824-4.922c.911-1.888 1.203-3.391.907-4.542-.296-1.15-1.089-2.043-2.346-2.647-1.256-.604-2.381-.649-3.467-.163-1.086.486-2.069 1.688-2.981 3.576l-2.582 5.318 7.887 3.838 2.583-5.318-.001-.062Zm13.03 5.567c.912-1.888 1.171-3.484.78-4.727-.391-1.243-1.278-2.227-2.693-2.923-1.382-.664-2.695-.768-3.906-.281-1.242.457-2.319 1.63-3.231 3.518l-2.856 5.915 9.05 4.351 2.855-5.916.001.063ZM137.411 399.452l6.396-9.687c2.142-3.219 4.519-5.287 7.162-6.047 2.612-.791 5.177-.395 7.634 1.251 2.426 1.616 3.859 3.747 4.209 6.552.349 2.741-.548 5.753-2.659 9.002l-3.121 4.734 9.858 6.492-3.243 4.922-26.173-17.22-.063.001Zm19.026-1.367c1.254-1.924 1.732-3.555 1.339-4.923-.393-1.367-1.218-2.415-2.479-3.269-1.26-.854-2.575-1.145-3.915-.968-1.34.178-2.637 1.26-3.954 3.186l-3.121 4.733 9.008 5.912 3.121-4.733.001.062Zm.867 1.829 3.361-5.487 16.567 1.545-3.702 5.648-16.194-1.676-.032-.03ZM156.981 371.008l3.905-4.465 15.098 13.121c1.895 1.655 3.685 2.407 5.431 2.254 1.746-.153 3.327-1.021 4.68-2.604 1.352-1.582 2.017-3.217 1.9-4.994-.086-1.747-1.076-3.448-2.972-5.104l-15.098-13.12 3.813-4.37 15.098 13.12c3.001 2.606 4.476 5.517 4.362 8.672-.114 3.155-1.324 6.109-3.722 8.833-2.368 2.692-5.063 4.327-8.209 4.846-3.114.549-6.187-.463-9.22-3.099l-15.129-13.151.063.061ZM188.103 338.008l4.875-4.324 29.374 16.076-4.752 4.197-20.701-11.906a14.031 14.031 0 0 1-1.416-.82c-.409-.275-.851-.58-1.292-.885l-.154.158c.256.433.481.898.674 1.395.225.464.451.991.645 1.488l9.192 22.05-4.135 3.626-12.31-31.055Zm9.758 17.671 11.233-9.859 4.119 2.213-13.639 12.02-1.681-4.343-.032-.031ZM208.669 321.069l9.591-6.523c3.218-2.174 6.171-3.127 8.922-2.859 2.72.3 4.923 1.638 6.548 4.079 1.655 2.408 2.096 4.993 1.351 7.658-.713 2.697-2.679 5.101-5.897 7.276l-4.703 3.197 6.656 9.79-4.889 3.326-17.579-25.944Zm18.063 6.017c1.918-1.279 2.93-2.638 3.13-4.046.169-1.377-.192-2.713-1.02-3.949-.829-1.235-1.932-2.061-3.247-2.352-1.316-.353-2.964.141-4.851 1.452l-4.703 3.197 6.05 8.895 4.703-3.198-.062.001Zm.12 2.028 5.226-3.799 14.683 7.788-5.6 3.805-14.309-7.794ZM252.827 317.489l-18.938-13.153 5.953-3.03 11.129 8.095c.378.244.756.55 1.135.856.348.338.758.612 1.136.918l.218-.097c-.038-.468-.106-.904-.113-1.403a23.099 23.099 0 0 1-.051-1.467l-.028-13.83 5.178-2.674-.412 22.954 5.065 9.909-5.271 2.707-5.001-9.785ZM289.162 286.653l-6.672 5.415-1.565-5.033 9.517-7.333 2.55-.791 9.396 30.321-5.658 1.777-7.537-24.325-.031-.031ZM325.363 295.002l-.233-1.089-2.587-13.727-.218.035-6.374 13.652 10.027-1.91 1.459-.616 7.1-1.363.906 4.762-24.538 4.702-.738-3.859 11.12-22.97 5.636-1.058 5.844 30.815-5.792 1.092-1.58-8.436-.032-.03Z"/></g><path fill="#1A73E8" d="m873.001 1003.53 19.134-91.247 18.396 3.851-13.843 66.289 40.818 8.44 12.216-57.837 18.396 3.851-12.216 57.838 54.248 11.165-5.16 24.83-131.989-27.18ZM904.026 870.766l30.14-89.286 17.889 5.999-22.158 65.353 34.971 11.743 19.324-57.015 17.888 6-19.323 57.015 39.003 13.016 22.42-66.159 17.89 6-30.53 90.228-127.514-42.894ZM951.424 740.146l22.022-45.423c6.908-14.153 14.812-23.909 23.976-29.539 9.028-5.495 19.208-5.658 30.258-.218 6.6 3.238 11.21 7.444 13.96 12.749 2.62 5.174 3.49 10.777 2.9 16.538l.27.263c4.62-5.29 10.47-8.593 17.01-10.169 6.67-1.445 13.78-.355 21.6 3.532 11.05 5.44 17.59 13.627 19.75 24.961 2.16 11.333-.35 23.945-6.99 37.826l-23.2 47.983-121.02-58.512-.536.009Zm72.156-21.083c3.91-8.087 5.16-14.527 3.89-19.455-1.27-4.928-4.67-8.752-10.06-11.34-5.39-2.589-10.21-2.779-14.87-.698-4.657 2.081-8.873 7.23-12.782 15.317l-11.078 22.78 33.83 16.443 11.08-22.78-.01-.267Zm55.89 23.846c3.91-8.087 5.02-14.925 3.35-20.248-1.68-5.323-5.49-9.541-11.55-12.52-5.93-2.847-11.56-3.292-16.76-1.203-5.33 1.958-9.95 6.98-13.86 15.067l-12.24 25.339 38.81 18.637 12.25-25.339v.267ZM1021.13 605.023l27.43-41.498c9.19-13.788 19.38-22.645 30.72-25.902 11.2-3.389 22.2-1.693 32.74 5.36 10.4 6.921 16.55 16.051 18.05 28.063 1.5 11.746-2.35 24.646-11.4 38.566l-13.39 20.276 42.28 27.809-13.91 21.086-112.26-73.765-.26.005Zm81.6-5.854c5.38-8.245 7.43-15.232 5.74-21.09-1.68-5.857-5.22-10.348-10.63-14.006-5.4-3.658-11.04-4.905-16.79-4.144-5.75.761-11.31 5.397-16.96 13.645l-13.39 20.276 38.64 25.326 13.38-20.275.01.268Zm3.72 7.831 14.41-23.502 71.06 6.619-15.88 24.193-69.46-7.179-.13-.131ZM1105.06 483.178l16.75-19.125 64.76 56.203c8.13 7.092 15.8 10.312 23.29 9.657 7.49-.655 14.27-4.374 20.07-11.154 5.8-6.78 8.65-13.78 8.15-21.395-.37-7.484-4.61-14.771-12.74-21.863l-64.76-56.203 16.35-18.718 64.76 56.203c12.87 11.162 19.2 23.632 18.71 37.147-.49 13.516-5.68 26.17-15.97 37.837-10.15 11.53-21.71 18.536-35.2 20.758-13.36 2.354-26.54-1.982-39.55-13.275l-64.89-56.335.27.263ZM1238.55 341.817l20.9-18.524 125.99 68.864-20.38 17.981-88.79-51.004c-2.29-1.167-4.32-2.338-6.07-3.514a412.788 412.788 0 0 1-5.54-3.79l-.66.68a41.678 41.678 0 0 1 2.89 5.972c.96 1.99 1.93 4.248 2.76 6.375l39.43 94.457-17.74 15.531-52.79-133.028Zm41.85 75.695 48.17-42.231 17.67 9.48-58.5 51.491-7.21-18.608-.13-.132ZM1326.75 269.256l41.14-27.942c13.8-9.315 26.47-13.397 38.26-12.248 11.67 1.284 21.12 7.017 28.09 17.471 7.1 10.318 8.99 21.388 5.79 32.807-3.06 11.551-11.49 21.85-25.29 31.165l-20.17 13.697 28.55 41.938-20.97 14.245-75.4-111.133Zm77.47 25.774c8.23-5.481 12.57-11.302 13.43-17.334.73-5.896-.82-11.622-4.38-16.914-3.55-5.293-8.28-8.828-13.92-10.075-5.65-1.515-12.72.605-20.81 6.218l-20.17 13.697 25.95 38.101 20.17-13.697-.27.004Zm.52 8.685 22.41-16.274 62.98 33.362-24.02 16.3-61.37-33.388ZM1516.15 253.917l-81.23-56.341 25.54-12.98 47.73 34.676c1.62 1.044 3.24 2.355 4.87 3.667 1.49 1.447 3.24 2.623 4.87 3.934l.93-.416c-.16-2.004-.45-3.871-.48-6.011-.16-2.003-.19-4.143-.22-6.282l-.12-59.245 22.21-11.456-1.77 98.327 21.72 42.449-22.6 11.596-21.45-41.918ZM1671.99 121.828l-28.61 23.194-6.72-21.559 40.82-31.413 10.94-3.385 40.3 129.884-24.27 7.611-32.33-104.201-.13-.131ZM1827.26 157.59l-1-4.665-11.1-58.801-.93.149-27.34 58.481 43-8.179 6.26-2.641 30.45-5.837 3.89 20.4-105.24 20.141-3.17-16.533 47.69-98.393 24.18-4.534 25.06 132.001-24.84 4.678-6.78-36.135-.13-.132Z"/><circle cx="2043" cy="1234" r="1016" stroke="#FF6D7F" stroke-dasharray="20 20" stroke-linejoin="round" stroke-width="10"/></g></svg>

<svg width="1920" height="1080" viewBox="0 0 1920 1080" fill="none" xmlns="http://www.w3.org/2000/svg">
<mask id="mask0_3613_15972" style="mask-type:alpha" maskUnits="userSpaceOnUse" x="50" y="50" width="1820" height="980">
<rect x="50" y="50" width="1820" height="980" fill="#FF0000"/>
</mask>
<g mask="url(#mask0_3613_15972)">
<mask id="mask1_3613_15972" style="mask-type:alpha" maskUnits="userSpaceOnUse" x="50" y="50" width="1820" height="980">
<rect x="50" y="50" width="1820" height="980" fill="#FF0000"/>
</mask>
<g mask="url(#mask1_3613_15972)">
<path d="M570.993 -162H176.053V1427H570.993V-162Z" fill="#D2E3FC"/>
<path d="M415.549 885.266C604.035 861.997 738.017 689.948 714.807 500.983C691.598 312.018 519.984 177.695 331.499 200.964C143.013 224.233 9.03021 396.283 32.2401 585.247C55.4501 774.212 227.063 908.535 415.549 885.266Z" fill="#1D1D1B"/>
<path d="M373.523 221.176C550.915 221.176 694.723 365.349 694.723 543.192C694.723 721.035 550.915 865.209 373.523 865.209C196.131 865.209 52.3225 720.99 52.3225 543.147C52.3225 365.304 196.131 221.13 373.523 221.13M373.523 175.693C171.43 175.738 7 340.54 7 543.147C7 745.753 171.43 910.601 373.523 910.601C575.615 910.601 740.045 745.753 740.045 543.147C740.045 340.54 575.615 175.693 373.523 175.693Z" fill="#F3F7FE"/>
<path d="M102.876 492.482L107.337 471.18L111.626 472.079L108.398 487.554L117.915 489.524L120.763 476.022L125.052 476.921L122.204 490.423L134.852 493.03L133.649 498.825L102.876 492.482Z" fill="white"/>
<path d="M110.109 461.488L117.136 440.645L121.307 442.045L116.141 457.302L124.294 460.043L128.8 446.733L132.971 448.134L128.465 461.444L137.56 464.482L142.786 449.038L146.956 450.438L139.839 471.501L110.109 461.488Z" fill="white"/>
<path d="M121.16 430.996L126.294 420.392C127.905 417.088 129.748 414.811 131.884 413.496C133.99 412.214 136.362 412.176 138.939 413.446C140.479 414.201 141.554 415.183 142.195 416.422C142.804 417.63 143.009 418.938 142.87 420.282L142.934 420.344C144.01 419.109 145.373 418.338 146.898 417.97C148.455 417.633 150.113 417.887 151.935 418.794C154.512 420.064 156.036 421.976 156.54 424.621C157.044 427.267 156.459 430.211 154.91 433.452L149.502 444.653L121.285 430.994L121.16 430.996ZM137.984 426.074C138.895 424.186 139.187 422.683 138.891 421.532C138.595 420.382 137.802 419.489 136.545 418.885C135.289 418.281 134.164 418.236 133.078 418.722C131.992 419.208 131.009 420.41 130.097 422.298L127.515 427.616L135.402 431.454L137.985 426.136L137.984 426.074ZM151.014 431.641C151.926 429.753 152.185 428.157 151.794 426.914C151.403 425.671 150.516 424.687 149.101 423.991C147.719 423.327 146.406 423.223 145.195 423.71C143.953 424.167 142.876 425.34 141.964 427.228L139.108 433.143L148.158 437.494L151.013 431.578L151.014 431.641Z" fill="white"/>
<path d="M137.411 399.452L143.807 389.765C145.949 386.546 148.326 384.478 150.969 383.718C153.581 382.927 156.146 383.323 158.603 384.969C161.029 386.585 162.462 388.716 162.812 391.521C163.161 394.262 162.264 397.274 160.153 400.523L157.032 405.257L166.89 411.749L163.647 416.671L137.474 399.451L137.411 399.452ZM156.437 398.085C157.691 396.161 158.169 394.53 157.776 393.162C157.383 391.795 156.558 390.747 155.297 389.893C154.037 389.039 152.722 388.748 151.382 388.925C150.042 389.103 148.745 390.185 147.428 392.111L144.307 396.844L153.315 402.756L156.436 398.023L156.437 398.085ZM157.304 399.914L160.665 394.427L177.232 395.972L173.53 401.62L157.336 399.944L157.304 399.914Z" fill="white"/>
<path d="M156.981 371.008L160.886 366.543L175.984 379.664C177.879 381.319 179.669 382.071 181.415 381.918C183.161 381.765 184.742 380.897 186.095 379.314C187.447 377.732 188.112 376.097 187.995 374.32C187.909 372.573 186.919 370.872 185.023 369.216L169.925 356.096L173.738 351.726L188.836 364.846C191.837 367.452 193.312 370.363 193.198 373.518C193.084 376.673 191.874 379.627 189.476 382.351C187.108 385.043 184.413 386.678 181.267 387.197C178.153 387.746 175.08 386.734 172.047 384.098L156.918 370.947L156.981 371.008Z" fill="white"/>
<path d="M188.103 338.008L192.978 333.684L222.352 349.76L217.6 353.957L196.899 342.051C196.364 341.778 195.893 341.505 195.483 341.231C195.074 340.956 194.632 340.651 194.191 340.346L194.037 340.504C194.293 340.937 194.518 341.402 194.711 341.899C194.936 342.363 195.162 342.89 195.356 343.387L204.548 365.437L200.413 369.063L188.103 338.008ZM197.861 355.679L209.094 345.82L213.213 348.033L199.574 360.053L197.893 355.71L197.861 355.679Z" fill="white"/>
<path d="M208.669 321.069L218.26 314.546C221.478 312.372 224.431 311.419 227.182 311.687C229.902 311.987 232.105 313.325 233.73 315.766C235.385 318.174 235.826 320.759 235.081 323.424C234.368 326.121 232.402 328.525 229.184 330.7L224.481 333.897L231.137 343.687L226.248 347.013L208.669 321.069ZM226.732 327.086C228.65 325.807 229.662 324.448 229.862 323.04C230.031 321.663 229.67 320.327 228.842 319.091C228.013 317.856 226.91 317.03 225.595 316.739C224.279 316.386 222.631 316.88 220.744 318.191L216.041 321.388L222.091 330.283L226.794 327.085L226.732 327.086ZM226.852 329.114L232.078 325.315L246.761 333.103L241.161 336.908L226.852 329.114Z" fill="white"/>
<path d="M252.827 317.489L233.889 304.336L239.842 301.306L250.971 309.401C251.349 309.645 251.727 309.951 252.106 310.257C252.454 310.595 252.864 310.869 253.242 311.175L253.46 311.078C253.422 310.61 253.354 310.174 253.347 309.675C253.31 309.207 253.303 308.708 253.296 308.208L253.268 294.378L258.446 291.704L258.034 314.658L263.099 324.567L257.828 327.274L252.827 317.489Z" fill="white"/>
<path d="M289.162 286.653L282.49 292.068L280.925 287.035L290.442 279.702L292.992 278.911L302.388 309.232L296.73 311.009L289.193 286.684L289.162 286.653Z" fill="white"/>
<path d="M325.363 295.002L325.13 293.913L322.543 280.186L322.325 280.221L315.951 293.873L325.978 291.963L327.437 291.347L334.537 289.984L335.443 294.746L310.905 299.448L310.167 295.589L321.287 272.619L326.923 271.561L332.767 302.376L326.975 303.468L325.395 295.032L325.363 295.002Z" fill="white"/>
</g>
<path d="M873.001 1003.53L892.135 912.283L910.531 916.134L896.688 982.423L937.506 990.863L949.722 933.026L968.118 936.877L955.902 994.715L1010.15 1005.88L1004.99 1030.71L873.001 1003.53Z" fill="#1A73E8"/>
<path d="M904.026 870.766L934.166 781.48L952.055 787.479L929.897 852.832L964.868 864.575L984.192 807.56L1002.08 813.56L982.757 870.575L1021.76 883.591L1044.18 817.432L1062.07 823.432L1031.54 913.66L904.026 870.766Z" fill="#1A73E8"/>
<path d="M951.424 740.146L973.446 694.723C980.354 680.57 988.258 670.814 997.422 665.184C1006.45 659.689 1016.63 659.526 1027.68 664.966C1034.28 668.204 1038.89 672.41 1041.64 677.715C1044.26 682.889 1045.13 688.492 1044.54 694.253L1044.81 694.516C1049.43 689.226 1055.28 685.923 1061.82 684.347C1068.49 682.902 1075.6 683.992 1083.42 687.879C1094.47 693.319 1101.01 701.506 1103.17 712.84C1105.33 724.173 1102.82 736.785 1096.18 750.666L1072.98 798.649L951.96 740.137L951.424 740.146ZM1023.58 719.063C1027.49 710.976 1028.74 704.536 1027.47 699.608C1026.2 694.68 1022.8 690.856 1017.41 688.268C1012.02 685.679 1007.2 685.489 1002.54 687.57C997.883 689.651 993.667 694.8 989.758 702.887L978.68 725.667L1012.51 742.11L1023.59 719.33L1023.58 719.063ZM1079.47 742.909C1083.38 734.822 1084.49 727.984 1082.82 722.661C1081.14 717.338 1077.33 713.12 1071.27 710.141C1065.34 707.294 1059.71 706.849 1054.51 708.938C1049.18 710.896 1044.56 715.918 1040.65 724.005L1028.41 749.344L1067.22 767.981L1079.47 742.642L1079.47 742.909Z" fill="#1A73E8"/>
<path d="M1021.13 605.023L1048.56 563.525C1057.75 549.737 1067.94 540.88 1079.28 537.623C1090.48 534.234 1101.48 535.93 1112.02 542.983C1122.42 549.904 1128.57 559.034 1130.07 571.046C1131.57 582.792 1127.72 595.692 1118.67 609.612L1105.28 629.888L1147.56 657.697L1133.65 678.783L1021.39 605.018L1021.13 605.023ZM1102.73 599.169C1108.11 590.924 1110.16 583.937 1108.47 578.079C1106.79 572.222 1103.25 567.731 1097.84 564.073C1092.44 560.415 1086.8 559.168 1081.05 559.929C1075.3 560.69 1069.74 565.326 1064.09 573.574L1050.7 593.85L1089.34 619.176L1102.72 598.901L1102.73 599.169ZM1106.45 607L1120.86 583.498L1191.92 590.117L1176.04 614.31L1106.58 607.131L1106.45 607Z" fill="#1A73E8"/>
<path d="M1105.06 483.178L1121.81 464.053L1186.57 520.256C1194.7 527.348 1202.37 530.568 1209.86 529.913C1217.35 529.258 1224.13 525.539 1229.93 518.759C1235.73 511.979 1238.58 504.979 1238.08 497.364C1237.71 489.88 1233.47 482.593 1225.34 475.501L1160.58 419.298L1176.93 400.58L1241.69 456.783C1254.56 467.945 1260.89 480.415 1260.4 493.93C1259.91 507.446 1254.72 520.1 1244.43 531.767C1234.28 543.297 1222.72 550.303 1209.23 552.525C1195.87 554.879 1182.69 550.543 1169.68 539.25L1104.79 482.915L1105.06 483.178Z" fill="#1A73E8"/>
<path d="M1238.55 341.817L1259.45 323.293L1385.44 392.157L1365.06 410.138L1276.27 359.134C1273.98 357.967 1271.95 356.796 1270.2 355.62C1268.44 354.445 1266.55 353.138 1264.66 351.83L1264 352.51C1265.09 354.365 1266.06 356.355 1266.89 358.482C1267.85 360.472 1268.82 362.73 1269.65 364.857L1309.08 459.314L1291.34 474.845L1238.55 341.817ZM1280.4 417.512L1328.57 375.281L1346.24 384.761L1287.74 436.252L1280.53 417.644L1280.4 417.512Z" fill="#1A73E8"/>
<path d="M1326.75 269.256L1367.89 241.314C1381.69 231.999 1394.36 227.917 1406.15 229.066C1417.82 230.35 1427.27 236.083 1434.24 246.537C1441.34 256.855 1443.23 267.925 1440.03 279.344C1436.97 290.895 1428.54 301.194 1414.74 310.509L1394.57 324.206L1423.12 366.144L1402.15 380.389L1326.75 269.256ZM1404.22 295.03C1412.45 289.549 1416.79 283.728 1417.65 277.696C1418.38 271.8 1416.83 266.074 1413.27 260.782C1409.72 255.489 1404.99 251.954 1399.35 250.707C1393.7 249.192 1386.63 251.312 1378.54 256.925L1358.37 270.622L1384.32 308.723L1404.49 295.026L1404.22 295.03ZM1404.74 303.715L1427.15 287.441L1490.13 320.803L1466.11 337.103L1404.74 303.715Z" fill="#1A73E8"/>
<path d="M1516.15 253.917L1434.92 197.576L1460.46 184.596L1508.19 219.272C1509.81 220.316 1511.43 221.627 1513.06 222.939C1514.55 224.386 1516.3 225.562 1517.93 226.873L1518.86 226.457C1518.7 224.453 1518.41 222.586 1518.38 220.446C1518.22 218.443 1518.19 216.303 1518.16 214.164L1518.04 154.919L1540.25 143.463L1538.48 241.79L1560.2 284.239L1537.6 295.835L1516.15 253.917Z" fill="#1A73E8"/>
<path d="M1671.99 121.828L1643.38 145.022L1636.66 123.463L1677.48 92.0495L1688.42 88.6645L1728.72 218.549L1704.45 226.16L1672.12 121.959L1671.99 121.828Z" fill="#1A73E8"/>
<path d="M1827.26 157.59L1826.26 152.925L1815.16 94.124L1814.23 94.2727L1786.89 152.754L1829.89 144.575L1836.15 141.934L1866.6 136.097L1870.49 156.497L1765.25 176.638L1762.08 160.105L1809.77 61.7116L1833.95 57.1783L1859.01 189.179L1834.17 193.857L1827.39 157.722L1827.26 157.59Z" fill="#1A73E8"/>
<circle cx="2043" cy="1234" r="1016" stroke="#FF6D7F" stroke-width="10" stroke-linejoin="round" stroke-dasharray="20 20"/>
</g>
</svg>
